core/resources/src/main/assets/svg/objects/zzzz_image_toolbox_old.svg

<svg fill="none" height="674" viewBox="0 0 678 674" width="678" xmlns="http://www.w3.org/2000/svg">
    <g clip-path="url(#clip0_366_11)">
        <path
            d="M657.862 293.174C666.581 313.811 670.941 324.129 671.012 335.03C671.083 345.931 666.858 356.305 658.408 377.054L656.465 381.825C652.665 391.155 650.765 395.819 649.749 400.724C648.734 405.629 648.625 410.665 648.406 420.736L648.294 425.919C647.81 448.268 647.568 459.443 643.19 469.402C638.813 479.361 630.743 487.095 614.604 502.563L610.623 506.38C603.379 513.322 599.757 516.793 596.839 520.84C593.921 524.886 591.771 529.418 587.471 538.483L585.075 543.533C575.542 563.628 570.775 573.676 562.759 580.953C554.744 588.231 544.284 592.008 523.364 599.562L517.692 601.611C508.306 605 503.613 606.695 499.325 609.192C495.037 611.69 491.247 614.936 483.668 621.427L479.037 625.394C462.222 639.796 453.815 646.997 443.58 650.38C433.345 653.764 422.302 652.993 400.216 651.45L393.874 651.007C383.951 650.314 378.989 649.968 374.072 650.514C369.156 651.06 364.391 652.486 354.861 655.339L348.756 657.167C327.57 663.509 316.977 666.681 306.26 665.63C295.543 664.58 285.767 659.412 266.216 649.076L260.663 646.14C251.859 641.486 247.456 639.159 242.734 637.668C238.012 636.177 233.071 635.554 223.19 634.31L217.002 633.53C194.992 630.757 183.987 629.371 174.588 624.051C165.189 618.732 158.335 610.01 144.628 592.568L141.011 587.966C134.829 580.099 131.738 576.165 128.009 572.872C124.28 569.579 119.994 566.998 111.423 561.836L106.475 558.856C87.3701 547.35 77.8178 541.597 71.3608 532.872C64.9039 524.146 62.1941 513.33 56.7746 491.696L55.4739 486.504C53.0299 476.748 51.8078 471.87 49.7335 467.32C47.6592 462.77 44.7785 458.648 39.017 450.404L35.9843 446.065C23.1578 427.712 16.7446 418.536 14.3997 407.896C12.0548 397.256 14.0166 386.234 17.9402 364.19L18.8361 359.157C20.6024 349.233 21.4856 344.271 21.4529 339.259C21.4203 334.248 20.4726 329.298 18.5772 319.398L17.6158 314.376C13.4055 292.385 11.3004 281.39 13.5066 270.72C15.7127 260.05 22.0059 250.791 34.5923 232.273L37.5683 227.895C43.2219 219.577 46.0487 215.418 48.0636 210.841C50.0785 206.264 51.2369 201.371 53.5537 191.584L54.7867 186.375C59.924 164.673 62.4927 153.822 68.8355 145.013C75.1783 136.205 84.6549 130.328 103.608 118.574L108.517 115.53C117.02 110.257 121.272 107.62 124.958 104.279C128.644 100.937 131.683 96.9636 137.763 89.0167L141.319 84.3683C154.798 66.7486 161.537 57.9387 170.866 52.497C180.196 47.0553 191.182 45.5258 213.154 42.4668L219.331 41.6068C229.195 40.2336 234.127 39.547 238.83 37.9947C243.532 36.4424 247.904 34.058 256.647 29.2893L262.161 26.2816C281.576 15.6921 291.283 10.3973 301.986 9.20726C312.688 8.01724 323.321 11.0503 344.588 17.1164L350.717 18.8646C360.283 21.5932 365.066 22.9576 369.99 23.4394C374.913 23.9212 379.87 23.5101 389.783 22.688L396.119 22.1626C418.183 20.3328 429.215 19.4179 439.493 22.6678C449.771 25.9177 458.271 33.0087 475.272 47.1906L479.954 51.0963C487.617 57.4887 491.449 60.685 495.769 63.1264C500.089 65.5678 504.804 67.2012 514.233 70.4681L519.932 72.4425C540.948 79.7236 551.456 83.3641 559.566 90.5369C567.676 97.7097 572.573 107.694 582.367 127.663L584.828 132.681C589.247 141.69 591.456 146.194 594.426 150.202C597.397 154.21 601.063 157.634 608.397 164.481L612.428 168.245C628.767 183.502 636.936 191.13 641.443 201.031C645.95 210.933 646.338 222.103 647.113 244.444L647.292 249.625C647.642 259.693 647.816 264.727 648.896 269.618C649.975 274.509 651.936 279.149 655.857 288.429L657.862 293.174Z"
            fill="#134F4A" />
        <path
            d="M283.022 325.254C262.985 325.254 247.094 308.935 247.094 288.359C247.094 267.784 262.985 251.465 283.022 251.465C303.059 251.465 318.95 267.784 318.95 288.359C318.95 308.226 303.059 325.254 283.022 325.254Z"
            fill="#4CE4B9" fill-opacity="0.8" />
        <path
            d="M283.022 325.254C262.985 325.254 247.094 308.935 247.094 288.359C247.094 267.784 262.985 251.465 283.022 251.465C303.059 251.465 318.95 267.784 318.95 288.359C318.95 308.226 303.059 325.254 283.022 325.254Z"
            fill="#4CE4B9" fill-opacity="0.8" />
        <path
            d="M474.407 172H414.296C401.86 172 391.496 180.514 388.732 191.866H381.823H346.586H258.838C214.619 191.866 178 228.761 178 274.879V420.329C178 430.971 180.073 440.905 183.527 450.128C190.437 469.285 202.182 484.185 220.837 493.408C231.201 499.084 242.947 501.922 254.002 502.632C255.384 502.632 256.765 502.632 258.147 502.632H392.878C437.097 502.632 473.716 465.737 473.716 419.619V316.031V301.131V288.36C488.225 288.36 499.971 275.589 499.971 260.689V198.961C500.662 184.062 488.916 172 474.407 172ZM419.824 211.733L431.569 200.38L439.17 192.576C443.315 188.319 448.843 188.319 452.297 192.576L461.97 202.509L471.643 211.733C473.716 213.861 475.098 216.699 475.098 218.828C475.098 221.666 474.407 224.504 472.334 225.923C468.188 230.18 461.97 230.18 457.825 226.632L455.752 224.504V259.27C455.752 264.946 450.915 269.912 445.388 269.912C439.861 269.912 435.024 264.946 435.024 259.27V225.923L433.642 227.342C429.497 230.889 423.278 230.889 419.133 226.632C417.06 224.504 416.369 221.666 416.369 219.537C416.369 216.699 417.751 213.861 419.824 211.733ZM452.988 299.002V316.031V357.892L446.77 354.344C434.333 347.249 419.824 348.668 408.769 357.892C388.041 375.63 368.695 392.658 348.658 410.396C334.149 422.457 317.567 422.457 303.057 410.396C296.839 404.01 288.548 399.753 279.566 399.753C273.348 399.753 266.438 402.591 260.22 406.139C242.256 418.2 224.983 430.262 207.019 442.324C203.564 435.228 202.182 426.714 202.182 418.2V278.427C202.182 245.789 227.747 219.537 259.529 219.537H346.586H388.041V260.689C388.041 275.589 399.787 288.36 414.987 288.36H452.988V293.629V299.002Z"
            fill="#4CE4B9" fill-opacity="0.8" />
        <path
            d="M474.407 172H414.296C401.86 172 391.496 180.514 388.732 191.866H381.823H346.586H258.838C214.619 191.866 178 228.761 178 274.879V420.329C178 430.971 180.073 440.905 183.527 450.128C190.437 469.285 202.182 484.185 220.837 493.408C231.201 499.084 242.947 501.922 254.002 502.632C255.384 502.632 256.765 502.632 258.147 502.632H392.878C437.097 502.632 473.716 465.737 473.716 419.619V316.031V301.131V288.36C488.225 288.36 499.971 275.589 499.971 260.689V198.961C500.662 184.062 488.916 172 474.407 172ZM419.824 211.733L431.569 200.38L439.17 192.576C443.315 188.319 448.843 188.319 452.297 192.576L461.97 202.509L471.643 211.733C473.716 213.861 475.098 216.699 475.098 218.828C475.098 221.666 474.407 224.504 472.334 225.923C468.188 230.18 461.97 230.18 457.825 226.632L455.752 224.504V259.27C455.752 264.946 450.915 269.912 445.388 269.912C439.861 269.912 435.024 264.946 435.024 259.27V225.923L433.642 227.342C429.497 230.889 423.278 230.889 419.133 226.632C417.06 224.504 416.369 221.666 416.369 219.537C416.369 216.699 417.751 213.861 419.824 211.733ZM452.988 299.002V316.031V357.892L446.77 354.344C434.333 347.249 419.824 348.668 408.769 357.892C388.041 375.63 368.695 392.658 348.658 410.396C334.149 422.457 317.567 422.457 303.057 410.396C296.839 404.01 288.548 399.753 279.566 399.753C273.348 399.753 266.438 402.591 260.22 406.139C242.256 418.2 224.983 430.262 207.019 442.324C203.564 435.228 202.182 426.714 202.182 418.2V278.427C202.182 245.789 227.747 219.537 259.529 219.537H346.586H388.041V260.689C388.041 275.589 399.787 288.36 414.987 288.36H452.988V293.629V299.002Z"
            fill="#4CE4B9" fill-opacity="0.8" />
    </g>
    <defs>
        <clipPath id="clip0_366_11">
            <rect fill="white" height="674" width="678" />
        </clipPath>
    </defs>
</svg>

<svg xmlns="http://www.w3.org/2000/svg" width="678" height="674" fill="none" viewBox="0 0 678 674"><g clip-path="url(#a)"><path fill="#134f4a" d="M657.862 293.174c8.719 20.637 13.079 30.955 13.15 41.856s-4.154 21.275-12.604 42.024l-1.943 4.771c-3.8 9.33-5.7 13.994-6.716 18.899-1.015 4.905-1.124 9.941-1.343 20.012l-.112 5.183c-.484 22.349-.726 33.524-5.104 43.483-4.377 9.959-12.447 17.693-28.586 33.161l-3.981 3.817c-7.244 6.942-10.866 10.413-13.784 14.46-2.918 4.046-5.068 8.578-9.368 17.643l-2.396 5.05c-9.533 20.095-14.3 30.143-22.316 37.42s-18.475 11.055-39.395 18.609l-5.672 2.049c-9.386 3.389-14.079 5.084-18.367 7.581s-8.078 5.744-15.657 12.235l-4.631 3.967c-16.815 14.402-25.222 21.603-35.457 24.986-10.235 3.384-21.278 2.613-43.364 1.07l-6.342-.443c-9.923-.693-14.885-1.039-19.802-.493s-9.681 1.972-19.211 4.825l-6.105 1.828c-21.186 6.342-31.779 9.514-42.496 8.463-10.717-1.05-20.493-6.218-40.044-16.554l-5.553-2.936c-8.804-4.654-13.207-6.981-17.929-8.472s-9.663-2.114-19.544-3.358l-6.188-.78c-22.01-2.773-33.015-4.159-42.414-9.479s-16.253-14.041-29.96-31.483l-3.617-4.602c-6.182-7.867-9.273-11.801-13.002-15.094s-8.015-5.874-16.586-11.036l-4.948-2.98c-19.105-11.506-28.657-17.259-35.114-25.984s-9.167-19.542-14.586-41.176l-1.301-5.192c-2.444-9.756-3.666-14.634-5.74-19.184s-4.956-8.672-10.717-16.916l-3.033-4.339c-12.826-18.353-19.24-27.529-21.584-38.169s-.383-21.662 3.54-43.706l.896-5.033c1.766-9.924 2.65-14.886 2.617-19.898-.033-5.011-.98-9.961-2.876-19.861l-.961-5.022c-4.21-21.991-6.316-32.986-4.11-43.656 2.207-10.67 8.5-19.929 21.086-38.447l2.976-4.378c5.654-8.318 8.48-12.477 10.496-17.054 2.014-4.577 3.173-9.47 5.49-19.257l1.233-5.209c5.137-21.702 7.706-32.553 14.048-41.362 6.343-8.808 15.82-14.685 34.773-26.439l4.909-3.044c8.503-5.273 12.755-7.91 16.441-11.251 3.686-3.342 6.725-7.315 12.805-15.262l3.556-4.649c13.479-17.62 20.218-26.43 29.547-31.871 9.33-5.442 20.316-6.971 42.288-10.03l6.177-.86c9.864-1.373 14.796-2.06 19.499-3.612s9.074-3.937 17.817-8.706l5.514-3.007c19.415-10.59 29.122-15.885 39.825-17.075 10.702-1.19 21.335 1.843 42.602 7.91l6.129 1.748c9.566 2.728 14.349 4.093 19.273 4.574 4.923.482 9.88.071 19.793-.751l6.336-.525c22.064-1.83 33.096-2.745 43.374.505s18.778 10.34 35.779 24.523l4.682 3.905c7.663 6.393 11.495 9.589 15.815 12.03 4.32 2.442 9.035 4.075 18.464 7.342l5.699 1.974c21.016 7.282 31.524 10.922 39.634 18.095s13.007 17.157 22.801 37.126l2.461 5.018c4.419 9.009 6.628 13.513 9.598 17.521s6.637 7.432 13.971 14.279l4.031 3.764c16.339 15.257 24.508 22.885 29.015 32.786s4.895 21.072 5.67 43.413l.179 5.181c.35 10.068.524 15.102 1.604 19.993 1.079 4.891 3.04 9.531 6.961 18.811z"/><path fill="#4ce4b9" fill-opacity=".8" d="M283.022 325.254c-20.037 0-35.928-16.319-35.928-36.895 0-20.575 15.891-36.894 35.928-36.894s35.928 16.319 35.928 36.894c0 19.867-15.891 36.895-35.928 36.895"/><path fill="#4ce4b9" fill-opacity=".8" d="M283.022 325.254c-20.037 0-35.928-16.319-35.928-36.895 0-20.575 15.891-36.894 35.928-36.894s35.928 16.319 35.928 36.894c0 19.867-15.891 36.895-35.928 36.895"/><path fill="#4ce4b9" fill-opacity=".8" d="M474.407 172h-60.111c-12.436 0-22.8 8.514-25.564 19.866H258.838c-44.219 0-80.838 36.895-80.838 83.013v145.45c0 10.642 2.073 20.576 5.527 29.799 6.91 19.157 18.655 34.057 37.31 43.28 10.364 5.676 22.11 8.514 33.165 9.224h138.876c44.219 0 80.838-36.895 80.838-83.013V288.36c14.509 0 26.255-12.771 26.255-27.671v-61.728c.691-14.899-11.055-26.961-25.564-26.961m-54.583 39.733 11.745-11.353 7.601-7.804c4.145-4.257 9.673-4.257 13.127 0l9.673 9.933 9.673 9.224c2.073 2.128 3.455 4.966 3.455 7.095 0 2.838-.691 5.676-2.764 7.095-4.146 4.257-10.364 4.257-14.509.709l-2.073-2.128v34.766c0 5.676-4.837 10.642-10.364 10.642s-10.364-4.966-10.364-10.642v-33.347l-1.382 1.419c-4.145 3.547-10.364 3.547-14.509-.71-2.073-2.128-2.764-4.966-2.764-7.095 0-2.838 1.382-5.676 3.455-7.804m33.164 87.269v58.89l-6.218-3.548c-12.437-7.095-26.946-5.676-38.001 3.548-20.728 17.738-40.074 34.766-60.111 52.504-14.509 12.061-31.091 12.061-45.601 0-6.218-6.386-14.509-10.643-23.491-10.643-6.218 0-13.128 2.838-19.346 6.386-17.964 12.061-35.237 24.123-53.201 36.185-3.455-7.096-4.837-15.61-4.837-24.124V278.427c0-32.638 25.565-58.89 57.347-58.89h128.512v41.152c0 14.9 11.746 27.671 26.946 27.671h38.001v10.642"/><path fill="#4ce4b9" fill-opacity=".8" d="M474.407 172h-60.111c-12.436 0-22.8 8.514-25.564 19.866H258.838c-44.219 0-80.838 36.895-80.838 83.013v145.45c0 10.642 2.073 20.576 5.527 29.799 6.91 19.157 18.655 34.057 37.31 43.28 10.364 5.676 22.11 8.514 33.165 9.224h138.876c44.219 0 80.838-36.895 80.838-83.013V288.36c14.509 0 26.255-12.771 26.255-27.671v-61.728c.691-14.899-11.055-26.961-25.564-26.961m-54.583 39.733 11.745-11.353 7.601-7.804c4.145-4.257 9.673-4.257 13.127 0l9.673 9.933 9.673 9.224c2.073 2.128 3.455 4.966 3.455 7.095 0 2.838-.691 5.676-2.764 7.095-4.146 4.257-10.364 4.257-14.509.709l-2.073-2.128v34.766c0 5.676-4.837 10.642-10.364 10.642s-10.364-4.966-10.364-10.642v-33.347l-1.382 1.419c-4.145 3.547-10.364 3.547-14.509-.71-2.073-2.128-2.764-4.966-2.764-7.095 0-2.838 1.382-5.676 3.455-7.804m33.164 87.269v58.89l-6.218-3.548c-12.437-7.095-26.946-5.676-38.001 3.548-20.728 17.738-40.074 34.766-60.111 52.504-14.509 12.061-31.091 12.061-45.601 0-6.218-6.386-14.509-10.643-23.491-10.643-6.218 0-13.128 2.838-19.346 6.386-17.964 12.061-35.237 24.123-53.201 36.185-3.455-7.096-4.837-15.61-4.837-24.124V278.427c0-32.638 25.565-58.89 57.347-58.89h128.512v41.152c0 14.9 11.746 27.671 26.946 27.671h38.001v10.642"/></g><defs><clipPath id="a"><path fill="#fff" d="M0 0h678v674H0z"/></clipPath></defs></svg>
